X:1
T: The Morning Dew
C:
R:Jig
Q:180
K:Am
M:6/8
L:1/16
|:E4A2 A4B2|c6 BcBA3|B4G2 G4B2|d4B2 A4G2|
E4A2 A4B2|c6 BcBA3|B2c2d2 e4d2|1e4A2 A4G2:|2e4A2 A4A2|
|:B4e2 e4d2|e4A2 A4B2|d4e2 d4c2|
|1B4G2 G4A2|B4e2 e4d2|e4^f2 g4e2|d4B2 G4B2|A6A6:|
|2B4G2 E4F2|G4A2 B4d2|e4^f2 g4e2|d4B2 G4B2|A6A6||
